X:781
T:Athole Brose
T:Buckingham House
C:Abraham Macintosh (1769-?)
B:The Harp and Claymore, Scott Skinner (1890)
Z:Nigel Gatherer
N:Transcribed from Am for comparison
M:4/4
L:1/8
K:Am
B |: G>E E/E/E B,EEE  | G>E   E/E/E A/B/c BA |
     G>E E/E/E B,EEG  | F/G/A DA    dAFA    :|
     B<ee>d    e>fe>d | B<ee>f      g>ef>^d  |
     e>fge     fdec   | d>BA<d      G<EB>G  :|
<end>
<start>
